icons/svg/laptop.svg

﻿<?xml version="1.0" encoding="utf-8"?>
<!DOCTYPE svg PUBLIC "-//W3C//DTD SVG 1.1//EN" "http://www.w3.org/Graphics/SVG/1.1/DTD/svg11.dtd">
<svg xmlns="http://www.w3.org/2000/svg" xmlns:xlink="http://www.w3.org/1999/xlink" version="1.1" baseProfile="full" width="24" height="24" viewBox="0 0 24.00 24.00" enable-background="new 0 0 24.00 24.00" xml:space="preserve">
	<path fill="#000000" fill-opacity="1" stroke-width="0.2" stroke-linejoin="round" d="M 3.9997,5.99807L 19.9997,5.99807L 19.9997,15.9981L 3.9997,15.9981M 19.9997,17.9981C 21.1037,17.9981 21.9897,17.1021 21.9897,15.9981L 21.9997,5.99807C 21.9997,4.89406 21.1037,3.99807 19.9997,3.99807L 3.9997,3.99807C 2.8947,3.99807 1.9997,4.89406 1.9997,5.99807L 1.9997,15.9981C 1.9997,17.1021 2.8947,17.9981 3.9997,17.9981L -0.00030009,17.9981L -0.00030009,19.9981L 23.9997,19.9981L 23.9997,17.9981L 19.9997,17.9981 Z "/>
</svg>

<svg xmlns="http://www.w3.org/2000/svg" version="1.1" baseProfile="full" width="24" height="24" viewBox="0 0 24.00 24.00" xml:space="preserve"><path fill="#000" fill-opacity="1" stroke-width=".2" stroke-linejoin="round" d="M4 5.998h16v10H4m16 2c1.104 0 1.99-.896 1.99-2l.01-10c0-1.104-.896-2-2-2H4c-1.105 0-2 .896-2 2v10c0 1.104.895 2 2 2H0v2h24v-2h-4z"/></svg>
